TrafficJam2023/images/main-page/timer-line-360.svg

<svg width="174" height="209" viewBox="0 0 174 209" fill="none" xmlns="http://www.w3.org/2000/svg">
<g filter="url(#filter0_bdddiii_187_1351)">
<path d="M144 27L154 31.7735L154 20.2265L144 25L144 27ZM25.9995 178.167C23.054 178.167 20.6662 180.554 20.6662 183.5C20.6662 186.446 23.054 188.833 25.9995 188.833C28.945 188.833 31.3329 186.446 31.3329 183.5C31.3329 180.554 28.945 178.167 25.9995 178.167ZM26 71.2457L25 71.2457L26 71.2457ZM30.7662 59.8527L30.0641 59.1406L30.7662 59.8527ZM145 25L71.6606 25L71.6606 27L145 27L145 25ZM25 71.2457L24.9995 183.5L26.9995 183.5L27 71.2457L25 71.2457ZM59.7248 29.8948L30.0641 59.1406L31.4683 60.5648L61.129 31.319L59.7248 29.8948ZM27 71.2457C27 67.2309 28.6095 63.3836 31.4683 60.5648L30.0641 59.1406C26.8241 62.3353 25 66.6956 25 71.2457L27 71.2457ZM71.6606 25C67.1934 25 62.9057 26.7584 59.7248 29.8948L61.129 31.319C63.9357 28.5515 67.719 27 71.6606 27L71.6606 25Z" fill="#FCFDFD"/>
</g>
<defs>
<filter id="filter0_bdddiii_187_1351" x="0.666016" y="0.226562" width="173.334" height="208.607" filterUnits="userSpaceOnUse" color-interpolation-filters="sRGB">
<feFlood flood-opacity="0" result="BackgroundImageFix"/>
<feGaussianBlur in="BackgroundImageFix" stdDeviation="5.5"/>
<feComposite in2="SourceAlpha" operator="in" result="effect1_backgroundBlur_187_1351"/>
<feColorMatrix in="SourceAlpha" type="matrix" values="0 0 0 0 0 0 0 0 0 0 0 0 0 0 0 0 0 0 127 0" result="hardAlpha"/>
<feOffset/>
<feGaussianBlur stdDeviation="10"/>
<feComposite in2="hardAlpha" operator="out"/>
<feColorMatrix type="matrix" values="0 0 0 0 0 0 0 0 0 0.52 0 0 0 0 1 0 0 0 1 0"/>
<feBlend mode="normal" in2="effect1_backgroundBlur_187_1351" result="effect2_dropShadow_187_1351"/>
<feColorMatrix in="SourceAlpha" type="matrix" values="0 0 0 0 0 0 0 0 0 0 0 0 0 0 0 0 0 0 127 0" result="hardAlpha"/>
<feOffset/>
<feGaussianBlur stdDeviation="10"/>
<feComposite in2="hardAlpha" operator="out"/>
<feColorMatrix type="matrix" values="0 0 0 0 0 0 0 0 0 0.52 0 0 0 0 1 0 0 0 1 0"/>
<feBlend mode="normal" in2="effect2_dropShadow_187_1351" result="effect3_dropShadow_187_1351"/>
<feColorMatrix in="SourceAlpha" type="matrix" values="0 0 0 0 0 0 0 0 0 0 0 0 0 0 0 0 0 0 127 0" result="hardAlpha"/>
<feOffset/>
<feGaussianBlur stdDeviation="3.5"/>
<feComposite in2="hardAlpha" operator="out"/>
<feColorMatrix type="matrix" values="0 0 0 0 1 0 0 0 0 1 0 0 0 0 1 0 0 0 1 0"/>
<feBlend mode="normal" in2="effect3_dropShadow_187_1351" result="effect4_dropShadow_187_1351"/>
<feBlend mode="normal" in="SourceGraphic" in2="effect4_dropShadow_187_1351" result="shape"/>
<feColorMatrix in="SourceAlpha" type="matrix" values="0 0 0 0 0 0 0 0 0 0 0 0 0 0 0 0 0 0 127 0" result="hardAlpha"/>
<feOffset/>
<feGaussianBlur stdDeviation="10"/>
<feComposite in2="hardAlpha" operator="arithmetic" k2="-1" k3="1"/>
<feColorMatrix type="matrix" values="0 0 0 0 0 0 0 0 0 0.88 0 0 0 0 1 0 0 0 1 0"/>
<feBlend mode="normal" in2="shape" result="effect5_innerShadow_187_1351"/>
<feColorMatrix in="SourceAlpha" type="matrix" values="0 0 0 0 0 0 0 0 0 0 0 0 0 0 0 0 0 0 127 0" result="hardAlpha"/>
<feOffset/>
<feGaussianBlur stdDeviation="10"/>
<feComposite in2="hardAlpha" operator="arithmetic" k2="-1" k3="1"/>
<feColorMatrix type="matrix" values="0 0 0 0 0 0 0 0 0 0.88 0 0 0 0 1 0 0 0 1 0"/>
<feBlend mode="normal" in2="effect5_innerShadow_187_1351" result="effect6_innerShadow_187_1351"/>
<feColorMatrix in="SourceAlpha" type="matrix" values="0 0 0 0 0 0 0 0 0 0 0 0 0 0 0 0 0 0 127 0" result="hardAlpha"/>
<feOffset/>
<feGaussianBlur stdDeviation="3.5"/>
<feComposite in2="hardAlpha" operator="arithmetic" k2="-1" k3="1"/>
<feColorMatrix type="matrix" values="0 0 0 0 1 0 0 0 0 1 0 0 0 0 1 0 0 0 1 0"/>
<feBlend mode="normal" in2="effect6_innerShadow_187_1351" result="effect7_innerShadow_187_1351"/>
</filter>
</defs>
</svg>

<svg xmlns="http://www.w3.org/2000/svg" width="174" height="209" fill="none" viewBox="0 0 174 209"><g filter="url(#a)"><path fill="#FCFDFD" d="m144 27 10 4.773V20.227L144 25v2ZM26 178.167a5.333 5.333 0 1 0 0 10.666 5.333 5.333 0 1 0 0-10.666Zm0-106.921h-1 1Zm4.766-11.393-.702-.712.702.712ZM145 25H71.66v2H145v-2ZM25 71.246V183.5h2V71.246h-2Zm34.725-41.351L30.065 59.14l1.403 1.424L61.13 31.319l-1.404-1.424ZM27 71.245a15 15 0 0 1 4.468-10.68l-1.404-1.424A17 17 0 0 0 25 71.246h2ZM71.66 25a17 17 0 0 0-11.935 4.895l1.404 1.424A15 15 0 0 1 71.661 27v-2Z"/></g><defs><filter id="a" width="173.334" height="208.607" x="0.666016" y="0.226562" color-interpolation-filters="sRGB" filterUnits="userSpaceOnUse"><feFlood flood-opacity="0" result="BackgroundImageFix"/><feGaussianBlur in="BackgroundImageFix" stdDeviation="5.5"/><feComposite in2="SourceAlpha" operator="in" result="effect1_backgroundBlur_187_1351"/><feColorMatrix in="SourceAlpha" result="hardAlpha" values="0 0 0 0 0 0 0 0 0 0 0 0 0 0 0 0 0 0 127 0"/><feOffset/><feGaussianBlur stdDeviation="10"/><feComposite in2="hardAlpha" operator="out"/><feColorMatrix values="0 0 0 0 0 0 0 0 0 0.52 0 0 0 0 1 0 0 0 1 0"/><feBlend in2="effect1_backgroundBlur_187_1351" result="effect2_dropShadow_187_1351"/><feColorMatrix in="SourceAlpha" result="hardAlpha" values="0 0 0 0 0 0 0 0 0 0 0 0 0 0 0 0 0 0 127 0"/><feOffset/><feGaussianBlur stdDeviation="10"/><feComposite in2="hardAlpha" operator="out"/><feColorMatrix values="0 0 0 0 0 0 0 0 0 0.52 0 0 0 0 1 0 0 0 1 0"/><feBlend in2="effect2_dropShadow_187_1351" result="effect3_dropShadow_187_1351"/><feColorMatrix in="SourceAlpha" result="hardAlpha" values="0 0 0 0 0 0 0 0 0 0 0 0 0 0 0 0 0 0 127 0"/><feOffset/><feGaussianBlur stdDeviation="3.5"/><feComposite in2="hardAlpha" operator="out"/><feColorMatrix values="0 0 0 0 1 0 0 0 0 1 0 0 0 0 1 0 0 0 1 0"/><feBlend in2="effect3_dropShadow_187_1351" result="effect4_dropShadow_187_1351"/><feBlend in="SourceGraphic" in2="effect4_dropShadow_187_1351" result="shape"/><feColorMatrix in="SourceAlpha" result="hardAlpha" values="0 0 0 0 0 0 0 0 0 0 0 0 0 0 0 0 0 0 127 0"/><feOffset/><feGaussianBlur stdDeviation="10"/><feComposite in2="hardAlpha" k2="-1" k3="1" operator="arithmetic"/><feColorMatrix values="0 0 0 0 0 0 0 0 0 0.88 0 0 0 0 1 0 0 0 1 0"/><feBlend in2="shape" result="effect5_innerShadow_187_1351"/><feColorMatrix in="SourceAlpha" result="hardAlpha" values="0 0 0 0 0 0 0 0 0 0 0 0 0 0 0 0 0 0 127 0"/><feOffset/><feGaussianBlur stdDeviation="10"/><feComposite in2="hardAlpha" k2="-1" k3="1" operator="arithmetic"/><feColorMatrix values="0 0 0 0 0 0 0 0 0 0.88 0 0 0 0 1 0 0 0 1 0"/><feBlend in2="effect5_innerShadow_187_1351" result="effect6_innerShadow_187_1351"/><feColorMatrix in="SourceAlpha" result="hardAlpha" values="0 0 0 0 0 0 0 0 0 0 0 0 0 0 0 0 0 0 127 0"/><feOffset/><feGaussianBlur stdDeviation="3.5"/><feComposite in2="hardAlpha" k2="-1" k3="1" operator="arithmetic"/><feColorMatrix values="0 0 0 0 1 0 0 0 0 1 0 0 0 0 1 0 0 0 1 0"/><feBlend in2="effect6_innerShadow_187_1351" result="effect7_innerShadow_187_1351"/></filter></defs></svg>
